src/resources/icons/buildings/DenseConnectors.svg

<?xml version="1.0" encoding="UTF-8" standalone="no"?>
<!-- Generator: Adobe Illustrator 19.0.0, SVG Export Plug-In . SVG Version: 6.00 Build 0)  -->

<svg
   xmlns:dc="http://purl.org/dc/elements/1.1/"
   xmlns:cc="http://creativecommons.org/ns#"
   xmlns:rdf="http://www.w3.org/1999/02/22-rdf-syntax-ns#"
   xmlns:svg="http://www.w3.org/2000/svg"
   xmlns="http://www.w3.org/2000/svg"
   xmlns:sodipodi="http://sodipodi.sourceforge.net/DTD/sodipodi-0.dtd"
   xmlns:inkscape="http://www.inkscape.org/namespaces/inkscape"
   version="1.1"
   id="Layer_1"
   x="0px"
   y="0px"
   viewBox="0 0 24.000001 24.000001"
   xml:space="preserve"
   sodipodi:docname="DenseConnectors.svg"
   inkscape:version="0.92.1 r15371"
   width="24"
   height="24"><metadata
     id="metadata43"><rdf:RDF><cc:Work
         rdf:about=""><dc:format>image/svg+xml</dc:format><dc:type
           rdf:resource="http://purl.org/dc/dcmitype/StillImage" /><dc:title></dc:title></cc:Work></rdf:RDF></metadata><defs
     id="defs41" /><sodipodi:namedview
     pagecolor="#ffffff"
     bordercolor="#666666"
     borderopacity="1"
     objecttolerance="10"
     gridtolerance="10"
     guidetolerance="10"
     inkscape:pageopacity="0"
     inkscape:pageshadow="2"
     inkscape:window-width="1920"
     inkscape:window-height="1013"
     id="namedview39"
     showgrid="false"
     inkscape:zoom="10.429805"
     inkscape:cx="23.148928"
     inkscape:cy="19.113496"
     inkscape:window-x="-9"
     inkscape:window-y="-9"
     inkscape:window-maximized="1"
     inkscape:current-layer="Layer_1" /><g
     id="g8"
     transform="translate(0,-488.00098)" /><g
     id="g10"
     transform="translate(0,-488.00098)" /><g
     id="g12"
     transform="translate(0,-488.00098)" /><g
     id="g14"
     transform="translate(0,-488.00098)" /><g
     id="g16"
     transform="translate(0,-488.00098)" /><g
     id="g18"
     transform="translate(0,-488.00098)" /><g
     id="g20"
     transform="translate(0,-488.00098)" /><g
     id="g22"
     transform="translate(0,-488.00098)" /><g
     id="g24"
     transform="translate(0,-488.00098)" /><g
     id="g26"
     transform="translate(0,-488.00098)" /><g
     id="g28"
     transform="translate(0,-488.00098)" /><g
     id="g30"
     transform="translate(0,-488.00098)" /><g
     id="g32"
     transform="translate(0,-488.00098)" /><g
     id="g34"
     transform="translate(0,-488.00098)" /><g
     id="g36"
     transform="translate(0,-488.00098)" /><g
     id="g4563"><g
       transform="matrix(0.04549926,0,0,0.04549926,0.54413859,0.36536784)"
       id="g6"
       style="stroke-width:21.9783783"><g
         id="g4"
         style="stroke-width:21.9783783"><path
           id="path2"
           d="M 350.952,365.555 234.298,294.914 c 9.257,-25.04 9.263,-52.77 0,-77.827 L 350.952,146.446 C 404.988,199.123 495.844,160.47 495.844,85.358 495.845,38.291 457.555,0 410.486,0 353.603,0 312.284,55.029 328.723,109.836 L 212.066,180.48 c -20.605,-22.727 -50.347,-37.023 -83.367,-37.023 -62.056,0 -112.543,50.486 -112.543,112.543 0,62.057 50.486,112.543 112.543,112.543 33.02,0 62.762,-14.297 83.367,-37.022 l 116.657,70.644 c -16.415,54.729 24.798,109.836 81.763,109.836 47.067,0 85.359,-38.291 85.359,-85.358 0,-75.228 -90.918,-113.703 -144.893,-61.088 z M 410.486,42.829 c 23.451,0 42.53,19.078 42.53,42.528 0,23.45 -19.078,42.53 -42.53,42.53 -23.451,0 -42.528,-19.078 -42.528,-42.53 0,-23.45 19.079,-42.528 42.528,-42.528 z M 128.697,325.712 c -38.439,0 -69.713,-31.273 -69.713,-69.713 0,-38.441 31.273,-69.713 69.713,-69.713 38.441,0 69.712,31.273 69.712,69.713 0,38.44 -31.271,69.713 -69.712,69.713 z m 281.789,143.459 c -23.451,0 -42.528,-19.078 -42.528,-42.528 0,-23.451 19.078,-42.53 42.528,-42.53 23.451,0 42.53,19.078 42.53,42.53 0,23.449 -19.078,42.528 -42.53,42.528 z"
           inkscape:connector-curvature="0"
           style="stroke-width:21.9783783" /></g></g><circle
       r="3.6610239"
       cy="11.864384"
       cx="6.3728938"
       id="path4525"
       style="opacity:1;fill:#000000;fill-opacity:0.95939086;stroke:none;stroke-width:2.30747342;stroke-miterlimit:4;stroke-dasharray:none;stroke-dashoffset:0;stroke-opacity:1" /><circle
       r="3.3898368"
       cy="4.203352"
       cx="19.389868"
       id="path4525-9"
       style="opacity:1;fill:#000000;fill-opacity:0.95939086;stroke:none;stroke-width:2.30747342;stroke-miterlimit:4;stroke-dasharray:none;stroke-dashoffset:0;stroke-opacity:1" /><circle
       r="3.3898368"
       cy="19.796602"
       cx="19.050884"
       id="path4525-9-7"
       style="opacity:1;fill:#000000;fill-opacity:0.95939086;stroke:none;stroke-width:2.30747342;stroke-miterlimit:4;stroke-dasharray:none;stroke-dashoffset:0;stroke-opacity:1" /></g></svg>

<?xml version="1.0" encoding="UTF-8" standalone="no"?>
<!-- Generator: Adobe Illustrator 19.0.0, SVG Export Plug-In . SVG Version: 6.00 Build 0)  -->

<svg
   xmlns:dc="http://purl.org/dc/elements/1.1/"
   xmlns:cc="http://creativecommons.org/ns#"
   xmlns:rdf="http://www.w3.org/1999/02/22-rdf-syntax-ns#"
   xmlns:svg="http://www.w3.org/2000/svg"
   xmlns="http://www.w3.org/2000/svg"
   xmlns:sodipodi="http://sodipodi.sourceforge.net/DTD/sodipodi-0.dtd"
   xmlns:inkscape="http://www.inkscape.org/namespaces/inkscape"
   version="1.1"
   id="Layer_1"
   x="0px"
   y="0px"
   viewBox="0 0 512.001 512.001"
   style="enable-background:new 0 0 512.001 512.001;"
   xml:space="preserve"
   sodipodi:docname="DenseConnectors.svg"
   inkscape:version="0.92.1 r15371"><metadata
     id="metadata43"><rdf:RDF><cc:Work
         rdf:about=""><dc:format>image/svg+xml</dc:format><dc:type
           rdf:resource="http://purl.org/dc/dcmitype/StillImage" /><dc:title></dc:title></cc:Work></rdf:RDF></metadata><defs
     id="defs41" /><sodipodi:namedview
     pagecolor="#ffffff"
     bordercolor="#666666"
     borderopacity="1"
     objecttolerance="10"
     gridtolerance="10"
     guidetolerance="10"
     inkscape:pageopacity="0"
     inkscape:pageshadow="2"
     inkscape:window-width="1920"
     inkscape:window-height="1027"
     id="namedview39"
     showgrid="false"
     inkscape:zoom="0.46093662"
     inkscape:cx="256.00049"
     inkscape:cy="256.00049"
     inkscape:window-x="-8"
     inkscape:window-y="-8"
     inkscape:window-maximized="1"
     inkscape:current-layer="Layer_1" /><g
     id="g8" /><g
     id="g10" /><g
     id="g12" /><g
     id="g14" /><g
     id="g16" /><g
     id="g18" /><g
     id="g20" /><g
     id="g22" /><g
     id="g24" /><g
     id="g26" /><g
     id="g28" /><g
     id="g30" /><g
     id="g32" /><g
     id="g34" /><g
     id="g36" /><g
     id="g4551"><g
       id="g6"><g
         id="g4"><path
           id="path2"
           d="M350.952,365.555l-116.654-70.641c9.257-25.04,9.263-52.77,0-77.827l116.654-70.641    c54.036,52.677,144.892,14.024,144.892-61.088C495.845,38.291,457.555,0,410.486,0c-56.883,0-98.202,55.029-81.763,109.836    L212.066,180.48c-20.605-22.727-50.347-37.023-83.367-37.023c-62.056,0-112.543,50.486-112.543,112.543    s50.486,112.543,112.543,112.543c33.02,0,62.762-14.297,83.367-37.022l116.657,70.644    c-16.415,54.729,24.798,109.836,81.763,109.836c47.067,0,85.359-38.291,85.359-85.358    C495.845,351.415,404.927,312.94,350.952,365.555z M410.486,42.829c23.451,0,42.53,19.078,42.53,42.528s-19.078,42.53-42.53,42.53    c-23.451,0-42.528-19.078-42.528-42.53C367.958,61.907,387.037,42.829,410.486,42.829z M128.697,325.712    c-38.439,0-69.713-31.273-69.713-69.713c0-38.441,31.273-69.713,69.713-69.713c38.441,0,69.712,31.273,69.712,69.713    C198.409,294.439,167.138,325.712,128.697,325.712z M410.486,469.171c-23.451,0-42.528-19.078-42.528-42.528    c0-23.451,19.078-42.53,42.528-42.53c23.451,0,42.53,19.078,42.53,42.53C453.016,450.092,433.938,469.171,410.486,469.171z" /></g></g><circle
       r="58.576382"
       cy="84.610329"
       cx="410.03467"
       id="path4522"
       style="fill:#000000;fill-opacity:1;stroke:#000000;stroke-width:6.99968481;stroke-miterlimit:4;stroke-dasharray:none;stroke-dashoffset:0;stroke-opacity:1" /><circle
       r="58.576382"
       cy="427.39062"
       cx="410.03467"
       id="path4522-7"
       style="fill:#000000;fill-opacity:1;stroke:#000000;stroke-width:6.99968481;stroke-miterlimit:4;stroke-dasharray:none;stroke-dashoffset:0;stroke-opacity:1" /><circle
       r="74.953819"
       cy="258.16998"
       cx="125.83076"
       id="path4522-2"
       style="fill:#000000;fill-opacity:1;stroke:#000000;stroke-width:8.95673466;stroke-miterlimit:4;stroke-dasharray:none;stroke-dashoffset:0;stroke-opacity:1" /></g></svg>
